!!!COM: Anonim
!!!CDT: [?]
!!!OTL@@POL: Christus sie nam narodzieł
!!!TXO: Polish
!!!ODT: 
!!!GTL: Hymnbook E
!!!ARL: Opactwo św. Wojciecha, Staniątki 
!!!voices:	3
**kern	**kern	**text	**kern	**text
*staff3	*staff2	*staff2	*staff1	*staff1
*I"Basso	*I"Canto II	*	*I"Canto I	*
=1-	=1-	=1-	=1-	=1-
*clefF4	*clefG2	*	*clefG2	*
*k[b-]	*k[b-]	*	*k[b-]	*
*M3/2	*M3/2	*	*M3/2	*
1F	1a	Chrys-	1cc	Chrys-
2F	2a	-tus	2cc	-tus
=2	=2	=2	=2	=2
1E	1g	się	1cc	się
2E	2g	nam	2cc	nam
=3	=3	=3	=3	=3
2F	1f	na-	1a	na-
2D	.	.	.	.
2G	2f	-ro-	2b-	-ro-
=4	=4	=4	=4	=4
1C	1e	-dził	1cc	-dził
2F	2a	Wszy-	2cc	Wszy-
=5	=5	=5	=5	=5
1F	1a	-stek	1cc	-stek
2BB-	2b-	świat	2dd	świat
=6	=6	=6	=6	=6
1F	1a	u-	1cc	u-
2C	2g	-we-	2b-	-we-
=7	=7	=7	=7	=7
2D	1f	-se-	1a	-se-
2BB-	.	.	.	.
2C	2e	-lon	2g	-lon
=8	=8	=8	=8	=8
1FF	1f	był	1f	był
2C	2e	Kr&oacute;-	2g	Kr&oacute;-
=9	=9	=9	=9	=9
1BBn	1d	-le-	1g	-le-
2C	2e	-stwo	2g	-stwo
=10	=10	=10	=10	=10
1F	1f	już	1a	już
2E	2g	nie-	2g	nie-
=11	=11	=11	=11	=11
1D	1a	-bies-	1f	-bies-
2C	2g	-kie	2e	-kie
=12	=12	=12	=12	=12
1BB-	1f	nam	1d	nam
4AA	2f	o-	2c	o-
4BB-	.	.	.	.
=13	=13	=13	=13	=13
1.C	1f	-two-	1.g	-two-
.	2e	.	.	.
=14	=14	=14	=14	=14
1.FF	1.f	-rzył.	1.f	-rzył.
==	==	==	==	==
*-	*-	*-	*-	*-
!!title: @{OTL}, @{GTL}: @{pag}, ed. @{ENC}
!!!pag: pp. 33v-34r
!!!GTL: Hymnbook E
!!!EFL: 
!!!YEM: Creative Commons CC/BY/NC/SA 4.0
!!!ENC: Marcin Konik
!!!END: 2015-05-02
!!!EED: Marcin Konik
!!!EEV: 
!!!ONB: Encoded in vim by Marcin Konik
!!!CharacterEncoding: utf-8
!!!RDF**kern: l=long note in original notation
!!!RDF**kern: i=editorial accidental
!!muse2ps: z14jc180F
